frontend/src/assets/images/Home no background.svg

<svg width="24" height="26" viewBox="0 0 24 26" fill="none" xmlns="http://www.w3.org/2000/svg">
<path d="M8.54261 24.3759V13H15.4574V24.3759M1.62782 9.58718L12 1.62402L22.3722 9.58718V22.1007C22.3722 22.7041 22.1293 23.2828 21.6971 23.7095C21.2648 24.1362 20.6786 24.3759 20.0673 24.3759H3.93275C3.32145 24.3759 2.73518 24.1362 2.30292 23.7095C1.87066 23.2828 1.62782 22.7041 1.62782 22.1007V9.58718Z" stroke="#153B61" stroke-width="2" stroke-linecap="round" stroke-linejoin="round"/>
</svg>

<svg xmlns="http://www.w3.org/2000/svg" width="24" height="26" fill="none"><path stroke="#153B61" stroke-linecap="round" stroke-linejoin="round" stroke-width="2" d="M8.543 24.376V13h6.914v11.376M1.627 9.587 12 1.624l10.372 7.963v12.514a2.26 2.26 0 0 1-.675 1.608 2.32 2.32 0 0 1-1.63.667H3.933a2.32 2.32 0 0 1-1.63-.667 2.26 2.26 0 0 1-.675-1.608z"/></svg>
